X: 24776
T: Magda's Ironing Board
R: reel
M: 4/4
K: Dmixolydian
d3c ~A3G|FDD2 cccc|d2fg fdec|dAcd Accc|
d2dc ~A3G|FDD2 fdec|dAcd AcAG|1 FDDz ccz2:|2 FDDz DFAD||
|:c3G Addc|AGAc GFFD|C2DE CA,A,G,|A,/B,/C DE DFAd|
c3G Addc|d2fd edcA|GAcd e/g/a ge|1 d2cc AFAd:|2 d4c2z2|

